styles/3/Numix/32/places/yellow-user-desktop.svg

<?xml version="1.0" encoding="UTF-8" standalone="no"?>
<!-- Created with Inkscape (http://www.inkscape.org/) -->

<svg
   xmlns:dc="http://purl.org/dc/elements/1.1/"
   xmlns:cc="http://creativecommons.org/ns#"
   xmlns:rdf="http://www.w3.org/1999/02/22-rdf-syntax-ns#"
   xmlns:svg="http://www.w3.org/2000/svg"
   xmlns="http://www.w3.org/2000/svg"
   xmlns:sodipodi="http://sodipodi.sourceforge.net/DTD/sodipodi-0.dtd"
   xmlns:inkscape="http://www.inkscape.org/namespaces/inkscape"
   width="32"
   height="32"
   id="svg2"
   version="1.1"
   inkscape:version="0.91 r"
   sodipodi:docname="yellow-user-desktop.svg"
   inkscape:export-filename="/media/Data/Main/Visuals/Icons/Numix/Desktop/repos/numix-wiki/Gjorgi/Numix-folders/48/New/folder-144.png"
   inkscape:export-xdpi="270"
   inkscape:export-ydpi="270">
  <defs
     id="defs4" />
  <sodipodi:namedview
     id="base"
     pagecolor="#ffffff"
     bordercolor="#666666"
     borderopacity="1.0"
     inkscape:pageopacity="0.0"
     inkscape:pageshadow="2"
     inkscape:zoom="21.767834"
     inkscape:cx="-4.4119396"
     inkscape:cy="7.5579404"
     inkscape:document-units="px"
     inkscape:current-layer="layer1"
     showgrid="true"
     inkscape:window-width="1280"
     inkscape:window-height="998"
     inkscape:window-x="0"
     inkscape:window-y="0"
     inkscape:window-maximized="1"
     showguides="true"
     inkscape:guide-bbox="true">
    <inkscape:grid
       type="xygrid"
       id="grid2985"
       empspacing="5"
       visible="true"
       enabled="true"
       snapvisiblegridlinesonly="true" />
  </sodipodi:namedview>
  <metadata
     id="metadata7">
    <rdf:RDF>
      <cc:Work
         rdf:about="">
        <dc:format>image/svg+xml</dc:format>
        <dc:type
           rdf:resource="http://purl.org/dc/dcmitype/StillImage" />
        <dc:title />
      </cc:Work>
    </rdf:RDF>
  </metadata>
  <g
     inkscape:label="Layer 1"
     inkscape:groupmode="layer"
     id="layer1"
     transform="translate(0,-1020.3622)">
    <rect
       style="fill:#ffb300;fill-opacity:1;stroke:none"
       id="rect3757"
       width="26"
       height="10"
       x="3"
       y="1026.3622" />
    <path
       style="fill:#ffb300;fill-opacity:1;stroke:none"
       d="m 6,1026.3622 c 0,-1 0,-2 1.4545454,-2 l 5.0909096,0 c 1.454545,0 1.454545,1 1.454545,2 l 0,1 -8,0 z"
       id="path3759"
       inkscape:connector-curvature="0"
       sodipodi:nodetypes="ccccccc" />
    <path
       style="fill:#95989f;fill-opacity:1;stroke:none"
       d="m 5,1028.3622 22,0 0,4.9677 -22,0 z"
       id="path3765"
       inkscape:connector-curvature="0" />
    <rect
       y="1027.3622"
       x="7"
       height="12.999977"
       width="19"
       id="rect3763"
       style="fill:#d8d8da;fill-opacity:1;stroke:none" />
    <rect
       style="fill:#f9f9f9;fill-opacity:1;stroke:none"
       id="rect3761"
       width="19"
       height="12.999977"
       x="6"
       y="1029.3622" />
    <path
       style="fill:#ffca28;fill-opacity:1;stroke:none"
       d="m 1,1030.3622 30,0 -2.142857,18 -25.7142859,0 z"
       id="path2987"
       inkscape:connector-curvature="0"
       sodipodi:nodetypes="ccccc" />
    <path
       style="opacity:0.4;fill:#745100;fill-opacity:1"
       d="M 11 12 C 9.892 12 9 12.892 9 14 L 9 21 C 9 22.108 9.892 23 11 23 L 14 23 L 12 25 C 11 26 11 26 12 26 L 20 26 C 21 26 21 26 20 25 L 18 23 L 21 23 C 22.108 23 23 22.108 23 21 L 23 14 C 23 12.892 22.108 12 21 12 L 11 12 z M 11 14 L 21 14 L 21 21 L 11 21 L 11 14 z M 13.34375 15 C 13.062428 15.046875 12.49995 15.25 12.5 16 L 12.5 19 C 12.500067 20 13.5 20 13.5 20 L 16.5 20 C 17.5 20 17.5 19 17.5 19 L 17.5 17 L 15.5 15 L 13.5 15 C 13.5 15 13.437524 14.984375 13.34375 15 z M 13.5 16 L 15 16 L 15 17.5 L 16.5 17.5 L 16.5 19 L 13.5 19 L 13.5 16 z "
       transform="translate(0,1020.3622)"
       id="path8" />
  </g>
</svg>

<!-- Created with Inkscape (http://www.inkscape.org/) -->
<svg xmlns="http://www.w3.org/2000/svg" viewBox="0 0 32 32">
 <g transform="translate(0,-1020.3622)">
  <rect width="26" height="10" x="3" y="1026.36" style="fill:#ffb300;fill-opacity:1;stroke:none"/>
  <path d="m 6 1026.36 c 0 -1 0 -2 1.455 -2 l 5.091 0 c 1.455 0 1.455 1 1.455 2 l 0 1 -8 0 z" style="fill:#ffb300;fill-opacity:1;stroke:none"/>
  <path d="m 5 1028.36 22 0 0 4.968 -22 0 z" style="fill:#95989f;fill-opacity:1;stroke:none"/>
  <rect y="1027.36" x="7" height="13" width="19" style="fill:#d8d8da;fill-opacity:1;stroke:none"/>
  <rect width="19" height="13" x="6" y="1029.36" style="fill:#f9f9f9;fill-opacity:1;stroke:none"/>
  <path d="m 1 1030.36 30 0 -2.143 18 -25.714 0 z" style="fill:#ffca28;fill-opacity:1;stroke:none"/>
  <path d="m 11 12 c -1.108 0 -2 0.892 -2 2 l 0 7 c 0 1.108 0.892 2 2 2 l 3 0 l -2 2 c -1 1 -1 1 0 1 l 8 0 c 1 0 1 0 0 -1 l -2 -2 l 3 0 c 1.108 0 2 -0.892 2 -2 l 0 -7 c 0 -1.108 -0.892 -2 -2 -2 l -10 0 z m 0 2 l 10 0 l 0 7 l -10 0 l 0 -7 z m 2.344 1 c -0.281 0.047 -0.844 0.25 -0.844 1 l 0 3 c 0 1 1 1 1 1 l 3 0 c 1 0 1 -1 1 -1 l 0 -2 l -2 -2 l -2 0 c 0 0 -0.062 -0.016 -0.156 0 z m 0.156 1 l 1.5 0 l 0 1.5 l 1.5 0 l 0 1.5 l -3 0 l 0 -3 z" transform="translate(0,1020.3622)" style="fill:#745100;opacity:0.4;fill-opacity:1"/>
 </g>
</svg>
